X: 12623
T: Farewell To Whisky
R: polka
M: 2/4
K: Gmajor
DG B/A/G/A/|BE E/F/G/E/|DG B/A/G/B/|dB Bd|
e/f/g/e/ dB|c/B/A/G/ AB|DG B/A/G/A/|1 BG G:|2 BG G>B||
|:dB gd|e/f/g/e/ dB/c/|dB gd|ef g2|
e/f/g/e/ dB|c/B/A/G/ AB|DG B/A/G/A/|1 BG G>B:|2 BG G||

